svg/media/microphone_line.svg

<?xml version="1.0" encoding="UTF-8"?>
<svg width="24px" height="24px" viewBox="0 0 24 24" version="1.1" xmlns="http://www.w3.org/2000/svg" xmlns:xlink="http://www.w3.org/1999/xlink">
    <title>microphone_line</title>
    <g id="页面-1" stroke="none" stroke-width="1" fill="none" fill-rule="evenodd">
        <g id="Media" transform="translate(-576.000000, 0.000000)" fill-rule="nonzero">
            <g id="microphone_line" transform="translate(576.000000, 0.000000)">
                 <path d="M24,0 L24,24 L0,24 L0,0 L24,0 Z M12.5934901,23.257841 L12.5819402,23.2595131 L12.5108777,23.2950439 L12.4918791,23.2987469 L12.4918791,23.2987469 L12.4767152,23.2950439 L12.4056548,23.2595131 C12.3958229,23.2563662 12.3870493,23.2590235 12.3821421,23.2649074 L12.3780323,23.275831 L12.360941,23.7031097 L12.3658947,23.7234994 L12.3769048,23.7357139 L12.4804777,23.8096931 L12.4953491,23.8136134 L12.4953491,23.8136134 L12.5071152,23.8096931 L12.6106902,23.7357139 L12.6232938,23.7196733 L12.6232938,23.7196733 L12.6266527,23.7031097 L12.609561,23.275831 C12.6075724,23.2657013 12.6010112,23.2592993 12.5934901,23.257841 L12.5934901,23.257841 Z M12.8583906,23.1452862 L12.8445485,23.1473072 L12.6598443,23.2396597 L12.6498822,23.2499052 L12.6498822,23.2499052 L12.6471943,23.2611114 L12.6650943,23.6906389 L12.6699349,23.7034178 L12.6699349,23.7034178 L12.678386,23.7104931 L12.8793402,23.8032389 C12.8914285,23.8068999 12.9022333,23.8029875 12.9078286,23.7952264 L12.9118235,23.7811639 L12.8776777,23.1665331 C12.8752882,23.1545897 12.8674102,23.1470016 12.8583906,23.1452862 L12.8583906,23.1452862 Z M12.1430473,23.1473072 C12.1332178,23.1423925 12.1221763,23.1452606 12.1156365,23.1525954 L12.1099173,23.1665331 L12.0757714,23.7811639 C12.0751323,23.7926639 12.0828099,23.8018602 12.0926481,23.8045676 L12.108256,23.8032389 L12.3092106,23.7104931 L12.3186497,23.7024347 L12.3186497,23.7024347 L12.3225043,23.6906389 L12.340401,23.2611114 L12.337245,23.2485176 L12.337245,23.2485176 L12.3277531,23.2396597 L12.1430473,23.1473072 Z" id="MingCute" fill-rule="nonzero"></path>
                <path d="M3.86837,4.36837 C6.60204,1.6347 11.0342,1.6347 13.7679,4.36837 C15.572175,6.17267393 16.185595,8.71690356 15.6080704,11.024342 L15.539,11.2797 L18.9396,15.6519 C19.5381,16.4214 19.6592,17.4238 19.3262,18.2844 C19.42556,18.31488 19.548472,18.330192 19.6982128,18.3002304 L19.8156,18.2688 C20.3396,18.0942 20.9059,18.3773 21.0806,18.9013 C21.2552,19.4252 20.9721,19.9915 20.4481,20.1662 C19.64,20.4356 18.9425,20.3009 18.4563,20.0925 C18.22,19.9912 18.0335,19.8732 17.9024,19.7773 C17.0756533,20.1431667 16.0973333,20.0773107 15.3161516,19.5578613 L15.1519,19.4396 L10.7797,16.039 C8.40641,16.7294 5.73951,16.139 3.86837,14.2679 C1.1347,11.5342 1.1347,7.10204 3.86837,4.36837 Z M14.5767,13.3 C14.3407,13.6405 14.0711,13.9646 13.7679,14.2679 C13.4646,14.5711 13.1405,14.8407 12.8001,15.0767 L16.3798,17.8609 C16.6581,18.0774 17.0541,18.0527 17.3034,17.8034 C17.5527,17.5541 17.5774,17.1581 17.3609,16.8797 L14.5767,13.3 Z M12.921,6.45896 L12.7178,6.79509 L12.7178,6.79509 C12.1122,7.77335 11.1822,9.07537 9.87881,10.3788 C8.57538,11.6822 7.27337,12.6122 6.29511,13.2178 L5.95896,13.421 L5.95896,13.421 C7.90888,14.7832 10.6132,14.5941 12.3536,12.8536 C14.0941,11.1132 14.2832,8.40888 12.921,6.45896 Z M11.423,5.04894 C9.49776,3.87203 6.94858,4.11658 5.28258,5.78258 C3.61658,7.44858 3.37203,9.99775 4.54893,11.923 L4.872595,11.739575 C4.988505,11.672 5.112105,11.59795 5.2424,11.5173 C6.12029,10.9738 7.29315,10.136 8.4646,8.96458 C9.63604,7.79313 10.4738,6.62027 11.0173,5.74238 L11.1333406,5.55209062 L11.1333406,5.55209062 L11.3360969,5.20462437 C11.3666625,5.15064125 11.395625,5.098705 11.423,5.04894 Z" id="形状" fill="#09244B"></path>
            </g>
        </g>
    </g>
</svg>

<svg xmlns="http://www.w3.org/2000/svg" width="24" height="24"><g fill="none" fill-rule="nonzero"><path d="M24 0v24H0V0h24ZM12.593 23.258l-.011.002-.071.035-.02.004-.014-.004-.071-.035c-.01-.004-.019-.001-.024.005l-.004.01-.017.428.005.02.01.013.104.074.015.004.012-.004.104-.074.012-.016.004-.017-.017-.427c-.002-.01-.009-.017-.017-.018Zm.265-.113-.013.002-.185.093-.01.01-.003.011.018.43.005.012.008.007.201.093c.012.004.023 0 .029-.008l.004-.014-.034-.614c-.003-.012-.01-.02-.02-.022Zm-.715.002a.023.023 0 0 0-.027.006l-.006.014-.034.614c0 .012.007.02.017.024l.015-.002.201-.093.01-.008.004-.011.017-.43-.003-.012-.01-.01-.184-.092Z"/><path fill="#09244B" d="M3.868 4.368a7 7 0 0 1 11.74 6.656l-.069.256 3.4 4.372a2.7 2.7 0 0 1 .387 2.632c.1.03.222.046.372.016l.118-.031a1 1 0 0 1 .632 1.897 2.765 2.765 0 0 1-2.546-.389 2.7 2.7 0 0 1-2.586-.22l-.164-.117-4.372-3.401a7 7 0 0 1-6.911-11.67ZM14.577 13.3a7.045 7.045 0 0 1-1.777 1.777l3.58 2.784a.7.7 0 0 0 .98-.981l-2.783-3.58ZM12.92 6.459l-.203.336a20.002 20.002 0 0 1-2.84 3.584 20.002 20.002 0 0 1-3.583 2.839l-.336.203a5.001 5.001 0 0 0 6.962-6.962Zm-1.498-1.41a5.002 5.002 0 0 0-6.874 6.874l.324-.183a18.004 18.004 0 0 0 3.592-2.775 18.003 18.003 0 0 0 2.552-3.223l.116-.19.203-.347.087-.156Z"/></g></svg>
